X:1
T: Miss Grant of Grant's Reel
C:Robert Mackintosh
R:Reel
Q: 232
K:G
M:4/4
L:1/8
|:D|G1/2A1/2B1/2c1/2 dB cA FD|GB dB gf gd|ce dG FA Ac|B1/2c1/2d Ac BG GD|
G1/2A1/2B1/2c1/2 dB cA FD|GB dB gf gd|ce dG FA Ac|B1/2c1/2d Ac BG Gd|
g2 bg af da|g2 a1/2g1/2f1/2e1/2 f^d Bg|ea ce dg Bg|Ae dc BG Gd|
g2 db af da|gf eg f^d Bg|ec BA dB AG|Fd Ac BG G,:|
